prive/vignettes/bz2.svg

<svg height="52" viewBox="0 0 48 48" width="52" xmlns="http://www.w3.org/2000/svg" xmlns:xlink="http://www.w3.org/1999/xlink"><radialGradient id="a" cx="605.71429" cy="486.64789" gradientTransform="matrix(-2.774389 0 0 1.969706 112.7623 -872.8854)" gradientUnits="userSpaceOnUse" r="117.14286" xlink:href="#b"/><linearGradient id="b"><stop offset="0"/><stop offset="1" stop-opacity="0"/></linearGradient><radialGradient id="c" cx="605.71429" cy="486.64789" gradientTransform="matrix(2.774389 0 0 1.969706 -1891.633 -872.8854)" gradientUnits="userSpaceOnUse" r="117.14286" xlink:href="#b"/><linearGradient id="d" gradientTransform="matrix(2.774389 0 0 1.969706 -1892.179 -872.8854)" gradientUnits="userSpaceOnUse" x1="302.85715" x2="302.85715" y1="366.64789" y2="609.50507"><stop offset="0" stop-opacity="0"/><stop offset=".5"/><stop offset="1" stop-opacity="0"/></linearGradient><linearGradient id="e" gradientUnits="userSpaceOnUse" x1="30.062469" x2="17.696169" y1="13.444801" y2="12.333632"><stop offset="0" stop-color="#fbf0e0"/><stop offset="1" stop-color="#f0ce99"/></linearGradient><linearGradient id="f" gradientUnits="userSpaceOnUse" x1="36.288929" x2="47.065835" y1="14.661557" y2="15.267649"><stop offset="0" stop-color="#de9523"/><stop offset="1" stop-color="#a36d18"/></linearGradient><linearGradient id="g" gradientTransform="matrix(1 0 0 .986355 0 .316638)" gradientUnits="userSpaceOnUse" x1="25.381256" x2="24.119167" y1="24.720648" y2="16.17037"><stop offset="0" stop-color="#e9b96e"/><stop offset="1" stop-color="#f1d19e"/></linearGradient><linearGradient id="h" gradientTransform="matrix(1 0 0 1.039184 0 -.040571)" gradientUnits="userSpaceOnUse" x1="16.148972" x2="34.193642" y1="12.636667" y2="12.636667"><stop offset="0" stop-color="#a36d18"/><stop offset="1" stop-color="#d79020"/></linearGradient><linearGradient id="i" gradientUnits="userSpaceOnUse" x1="21.906841" x2="22.071806" y1="9.757749" y2="16.020695"><stop offset="0" stop-color="#a0670c"/><stop offset="1" stop-color="#a0670c" stop-opacity="0"/></linearGradient><linearGradient id="j" gradientUnits="userSpaceOnUse" x1="18.706615" x2="30.014812" y1="19.912336" y2="47.388485"><stop offset="0" stop-color="#fff"/><stop offset="1" stop-color="#fff" stop-opacity=".686391"/></linearGradient><linearGradient id="k" gradientUnits="userSpaceOnUse" x1="24.990499" x2="24.990499" y1="34.004856" y2="22.585211"><stop offset="0" stop-color="#eaba6f"/><stop offset="1" stop-color="#b97a1b"/></linearGradient><g transform="matrix(.02105461 0 0 .02086758 42.60172 35.4036)"><path d="m-1559.2523-150.69685h1339.6335v478.35718h-1339.6335z" fill="url(#d)" opacity=".402062"/><path d="m-219.61876-150.68038v478.33079c142.874166.90045 345.40022-107.16966 345.40014-239.196175 0-132.026537-159.436816-239.134595-345.40014-239.134615z" fill="url(#c)" opacity=".402062"/><path d="m-1559.2523-150.68038v478.33079c-142.8742.90045-345.4002-107.16966-345.4002-239.196175 0-132.026537 159.4368-239.134595 345.4002-239.134615z" fill="url(#a)" opacity=".402062"/></g><g stroke-width="1.000001"><rect display="block" fill="url(#k)" height="23.112879" rx="2.424135" ry="2.394444" stroke="#a0670c" width="31.978371" x="7.462385" y="15.275433"/><rect display="block" fill="none" height="21.075352" opacity=".481013" rx="1.284688" stroke="url(#j)" width="29.804138" x="8.499" y="16.243698"/><path d="m8.7697819 16.547178 5.0499491-6.8108372 18.79556-.1010153 5.219973 6.7736155z" fill="url(#h)" fill-rule="evenodd" stroke="url(#i)"/><path d="m38.276321 16.325703 5.192948 7.194661h-39.5083235l4.6640688-7.199601 29.6513067.00494z" display="block" fill="url(#g)" stroke="#a0670c" stroke-linecap="round" stroke-linejoin="round"/><path d="m32.849333 9.6141009 4.682886 6.9222691 9.033616 4.384827-8.114506-8.912652-5.601996-2.3944441z" display="block" fill="url(#f)" stroke="#a0670c" stroke-linecap="round" stroke-linejoin="round"/></g><path d="m13.617702 9.7151161-3.9757787 6.7202389-9.13463147 4.384827 8.11450547-8.912652 4.9959047-2.1924139z" display="block" fill="#f8e8cf" stroke="#a0670c" stroke-linecap="round" stroke-linejoin="round"/><path d="m37.024959 16.43605 4.453912 6.056961h-35.8305918l4.141019-6.180317 27.2356608.123356z" display="block" fill="none" stroke="#f4e3ca"/><path d="m9.6523127 16.371803 3.3843303-5.778783 20.478198-.075221 3.841941 5.852081z" fill="none" opacity=".879747" stroke="url(#e)" stroke-linecap="round" stroke-linejoin="round"/><g fill="#eeeeec" stroke="#d3d7cf"><path d="m15.019962 29.297916q.533203 0 .808594-.234375.275391-.234375.275391-.691406 0-.451172-.275391-.685547-.275391-.240234-.808594-.240234h-1.248047v1.851562zm.07617 3.826172q.679688 0 1.019531-.287109.345704-.287109.345704-.867188 0-.568359-.339844-.849609-.339844-.287109-1.025391-.287109h-1.324219v2.291015zm2.097656-3.146484q.726563.210937 1.125.779297.398438.568359.398438 1.394531 0 1.265625-.855469 1.886719-.855469.621094-2.601562.621094h-3.744141v-8.748047h3.386719q1.822265 0 2.636719.550781.820312.550781.820312 1.763672 0 .638672-.298828 1.089844-.298828.445312-.867188.662109z"/><path d="m20.228947 25.911198h7.353515v1.365234l-4.693359 5.677734h4.828125v1.705079h-7.623047v-1.365235l4.693359-5.677734h-4.558593z"/><path d="m31.707462 33.001041h3.84961v1.658204h-6.357422v-1.658204l3.193359-2.818359q.427735-.386719.632813-.755859.205078-.369141.205078-.767578 0-.615235-.416016-.990235-.410156-.375-1.095703-.375-.527344 0-1.154297.228516-.626953.222656-1.341797.667969v-1.921875q.761719-.251954 1.50586-.38086.74414-.134765 1.458984-.134765 1.570313 0 2.4375.691406.873047.691406.873047 1.927734 0 .714844-.369141 1.335938-.36914.615234-1.552734 1.652343z"/></g></svg>

<?xml version="1.0" encoding="UTF-8" standalone="no"?>
<svg
   xmlns:dc="http://purl.org/dc/elements/1.1/"
   xmlns:cc="http://creativecommons.org/ns#"
   xmlns:rdf="http://www.w3.org/1999/02/22-rdf-syntax-ns#"
   xmlns:svg="http://www.w3.org/2000/svg"
   xmlns="http://www.w3.org/2000/svg"
   xmlns:xlink="http://www.w3.org/1999/xlink"
   xmlns:sodipodi="http://sodipodi.sourceforge.net/DTD/sodipodi-0.dtd"
   xmlns:inkscape="http://www.inkscape.org/namespaces/inkscape"
   version="1.1"
   inkscape:export-ydpi="97"
   inkscape:export-xdpi="97"
   inkscape:export-filename="/Users/izoo/Sites/spip-zone/_graphismes_/logos/spip_tango/tango_vignettes/png/zip.png"
   width="52px"
   viewBox="0 0 48 48" height="52px"
   id="svg2963"
   sodipodi:version="0.32"
   inkscape:version="1.0 (4035a4f, 2020-05-01)"
   sodipodi:docname="bz2.svg">
  <defs
     id="defs3">
    <radialGradient
       r="117.14286"
       fy="486.64789"
       fx="605.71429"
       cy="486.64789"
       cx="605.71429"
       gradientTransform="matrix(-2.774389,0,0,1.969706,112.7623,-872.8854)"
       gradientUnits="userSpaceOnUse"
       id="radialGradient6719"
       xlink:href="#linearGradient5060"
       inkscape:collect="always" />
    <linearGradient
       id="linearGradient5060"
       inkscape:collect="always">
      <stop
         id="stop5062"
         offset="0"
         style="stop-color:black;stop-opacity:1;" />
      <stop
         id="stop5064"
         offset="1"
         style="stop-color:black;stop-opacity:0;" />
    </linearGradient>
    <radialGradient
       r="117.14286"
       fy="486.64789"
       fx="605.71429"
       cy="486.64789"
       cx="605.71429"
       gradientTransform="matrix(2.774389,0,0,1.969706,-1891.633,-872.8854)"
       gradientUnits="userSpaceOnUse"
       id="radialGradient6717"
       xlink:href="#linearGradient5060"
       inkscape:collect="always" />
    <linearGradient
       id="linearGradient5048">
      <stop
         id="stop5050"
         offset="0"
         style="stop-color:black;stop-opacity:0;" />
      <stop
         style="stop-color:black;stop-opacity:1;"
         offset="0.5"
         id="stop5056" />
      <stop
         id="stop5052"
         offset="1"
         style="stop-color:black;stop-opacity:0;" />
    </linearGradient>
    <linearGradient
       y2="609.50507"
       x2="302.85715"
       y1="366.64789"
       x1="302.85715"
       gradientTransform="matrix(2.774389,0,0,1.969706,-1892.179,-872.8854)"
       gradientUnits="userSpaceOnUse"
       id="linearGradient6715"
       xlink:href="#linearGradient5048"
       inkscape:collect="always" />
    <linearGradient
       id="linearGradient2869">
      <stop
         id="stop2871"
         offset="0"
         style="stop-color:#ffffff;stop-opacity:1;" />
      <stop
         id="stop2873"
         offset="1.0000000"
         style="stop-color:#cccccc;stop-opacity:1.0000000;" />
    </linearGradient>
    <linearGradient
       id="linearGradient4995">
      <stop
         style="stop-color:#de9523;stop-opacity:1;"
         offset="0"
         id="stop4997" />
      <stop
         style="stop-color:#a36d18;stop-opacity:1.0000000;"
         offset="1.0000000"
         id="stop4999" />
    </linearGradient>
    <linearGradient
       inkscape:collect="always"
       id="linearGradient4987">
      <stop
         style="stop-color:#a0670c;stop-opacity:1;"
         offset="0"
         id="stop4989" />
      <stop
         style="stop-color:#a0670c;stop-opacity:0;"
         offset="1"
         id="stop4991" />
    </linearGradient>
    <linearGradient
       id="linearGradient4979">
      <stop
         style="stop-color:#fbf0e0;stop-opacity:1.0000000;"
         offset="0.0000000"
         id="stop4981" />
      <stop
         style="stop-color:#f0ce99;stop-opacity:1.0000000;"
         offset="1.0000000"
         id="stop4983" />
    </linearGradient>
    <linearGradient
       inkscape:collect="always"
       id="linearGradient4946">
      <stop
         style="stop-color:#000000;stop-opacity:1;"
         offset="0"
         id="stop4948" />
      <stop
         style="stop-color:#000000;stop-opacity:0;"
         offset="1"
         id="stop4950" />
    </linearGradient>
    <linearGradient
       id="linearGradient4222">
      <stop
         style="stop-color:#ffffff;stop-opacity:1;"
         offset="0"
         id="stop4224" />
      <stop
         style="stop-color:#ffffff;stop-opacity:0.68639052;"
         offset="1.0000000"
         id="stop4226" />
    </linearGradient>
    <linearGradient
       id="linearGradient4210">
      <stop
         style="stop-color:#eaba6f;stop-opacity:1.0000000;"
         offset="0.0000000"
         id="stop4212" />
      <stop
         style="stop-color:#b97a1b;stop-opacity:1.0000000;"
         offset="1.0000000"
         id="stop4214" />
    </linearGradient>
    <linearGradient
       id="linearGradient4192">
      <stop
         style="stop-color:#e9b96e;stop-opacity:1;"
         offset="0"
         id="stop4194" />
      <stop
         style="stop-color:#f1d19e;stop-opacity:1.0000000;"
         offset="1.0000000"
         id="stop4196" />
    </linearGradient>
    <linearGradient
       id="linearGradient4182">
      <stop
         style="stop-color:#a36d18;stop-opacity:1.0000000;"
         offset="0.0000000"
         id="stop4184" />
      <stop
         style="stop-color:#d79020;stop-opacity:1.0000000;"
         offset="1.0000000"
         id="stop4186" />
    </linearGradient>
    <radialGradient
       r="17.576654"
       fy="35.373093"
       fx="22.930462"
       cy="35.373093"
       cx="22.930462"
       gradientTransform="matrix(1.000000,0.000000,0.000000,0.333333,2.658463e-16,23.58206)"
       gradientUnits="userSpaceOnUse"
       id="radialGradient2252"
       xlink:href="#linearGradient4946"
       inkscape:collect="always" />
    <linearGradient
       y2="12.333632"
       x2="17.696169"
       y1="13.444801"
       x1="30.062469"
       gradientUnits="userSpaceOnUse"
       id="linearGradient2269"
       xlink:href="#linearGradient4979"
       inkscape:collect="always" />
    <linearGradient
       y2="15.267649"
       x2="47.065835"
       y1="14.661557"
       x1="36.288929"
       gradientUnits="userSpaceOnUse"
       id="linearGradient2274"
       xlink:href="#linearGradient4995"
       inkscape:collect="always" />
    <linearGradient
       y2="16.170370"
       x2="24.119167"
       y1="24.720648"
       x1="25.381256"
       gradientTransform="matrix(1.000000,0.000000,0.000000,0.986355,0.000000,0.316638)"
       gradientUnits="userSpaceOnUse"
       id="linearGradient2277"
       xlink:href="#linearGradient4192"
       inkscape:collect="always" />
    <linearGradient
       y2="12.636667"
       x2="34.193642"
       y1="12.636667"
       x1="16.148972"
       gradientTransform="matrix(1.000000,0.000000,0.000000,1.039184,0.000000,-4.057054e-2)"
       gradientUnits="userSpaceOnUse"
       id="linearGradient2280"
       xlink:href="#linearGradient4182"
       inkscape:collect="always" />
    <linearGradient
       y2="16.020695"
       x2="22.071806"
       y1="9.7577486"
       x1="21.906841"
       gradientUnits="userSpaceOnUse"
       id="linearGradient2282"
       xlink:href="#linearGradient4987"
       inkscape:collect="always" />
    <linearGradient
       y2="47.388485"
       x2="30.014812"
       y1="19.912336"
       x1="18.706615"
       gradientUnits="userSpaceOnUse"
       id="linearGradient2285"
       xlink:href="#linearGradient4222"
       inkscape:collect="always" />
    <linearGradient
       y2="22.585211"
       x2="24.990499"
       y1="34.004856"
       x1="24.990499"
       gradientUnits="userSpaceOnUse"
       id="linearGradient2288"
       xlink:href="#linearGradient4210"
       inkscape:collect="always" />
  </defs>
  <sodipodi:namedview
     inkscape:window-maximized="0"
     inkscape:document-rotation="0"
     id="base"
     pagecolor="#ffffff"
     bordercolor="#666666"
     borderopacity="0.16470588"
     inkscape:pageopacity="0.0"
     inkscape:pageshadow="2"
     inkscape:zoom="9.8944917"
     inkscape:cx="27.175542"
     inkscape:cy="22.113767"
     inkscape:current-layer="layer1"
     showgrid="false"
     inkscape:grid-bbox="true"
     inkscape:document-units="px"
     inkscape:showpageshadow="false"
     fill="#e9b96e"
     stroke="#c17d11"
     inkscape:window-width="872"
     inkscape:window-height="706"
     inkscape:window-x="392"
     inkscape:window-y="220" />
  <metadata
     id="metadata4">
    <rdf:RDF>
      <cc:Work
         rdf:about="">
        <dc:format>image/svg+xml</dc:format>
        <dc:type
           rdf:resource="http://purl.org/dc/dcmitype/StillImage" />
        <dc:title>Package</dc:title>
        <dc:creator>
          <cc:Agent>
            <dc:title>Jakub Steiner</dc:title>
          </cc:Agent>
        </dc:creator>
        <dc:source>http://jimmac.musichall.cz/</dc:source>
        <dc:subject>
          <rdf:Bag>
            <rdf:li>package</rdf:li>
            <rdf:li>archive</rdf:li>
            <rdf:li>tarball</rdf:li>
            <rdf:li>tar</rdf:li>
            <rdf:li>bzip</rdf:li>
            <rdf:li>gzip</rdf:li>
            <rdf:li>zip</rdf:li>
            <rdf:li>arj</rdf:li>
            <rdf:li>tar</rdf:li>
            <rdf:li>jar</rdf:li>
          </rdf:Bag>
        </dc:subject>
        <cc:license
           rdf:resource="http://creativecommons.org/licenses/by-sa/2.0/" />
      </cc:Work>
      <cc:License
         rdf:about="http://creativecommons.org/licenses/by-sa/2.0/">
        <cc:permits
           rdf:resource="http://web.resource.org/cc/Reproduction" />
        <cc:permits
           rdf:resource="http://web.resource.org/cc/Distribution" />
        <cc:requires
           rdf:resource="http://web.resource.org/cc/Notice" />
        <cc:requires
           rdf:resource="http://web.resource.org/cc/Attribution" />
        <cc:permits
           rdf:resource="http://web.resource.org/cc/DerivativeWorks" />
        <cc:requires
           rdf:resource="http://web.resource.org/cc/ShareAlike" />
      </cc:License>
    </rdf:RDF>
  </metadata>
  <g
     id="layer1"
     inkscape:label="Layer 1"
     inkscape:groupmode="layer">
    <g
       id="g8448">
      <g
         style="display:inline"
         transform="matrix(2.105461e-2,0,0,2.086758e-2,42.60172,35.4036)"
         id="g6707">
        <rect
           style="opacity:0.40206185;color:black;fill:url(#linearGradient6715);fill-opacity:1;fill-rule:nonzero;stroke:none;stroke-width:1;stroke-linecap:round;stroke-linejoin:miter;marker:none;marker-start:none;marker-mid:none;marker-end:none;stroke-miterlimit:4;stroke-dasharray:none;stroke-dashoffset:0;stroke-opacity:1;visibility:visible;display:inline;overflow:visible"
           id="rect6709"
           width="1339.6335"
           height="478.35718"
           x="-1559.2523"
           y="-150.69685" />
        <path
           style="opacity:0.40206185;color:black;fill:url(#radialGradient6717);fill-opacity:1;fill-rule:nonzero;stroke:none;stroke-width:1;stroke-linecap:round;stroke-linejoin:miter;marker:none;marker-start:none;marker-mid:none;marker-end:none;stroke-miterlimit:4;stroke-dasharray:none;stroke-dashoffset:0;stroke-opacity:1;visibility:visible;display:inline;overflow:visible"
           d="M -219.61876,-150.68038 C -219.61876,-150.68038 -219.61876,327.65041 -219.61876,327.65041 C -76.744594,328.55086 125.78146,220.48075 125.78138,88.454235 C 125.78138,-43.572302 -33.655436,-150.68036 -219.61876,-150.68038 z "
           id="path6711"
           sodipodi:nodetypes="cccc" />
        <path
           sodipodi:nodetypes="cccc"
           id="path6713"
           d="M -1559.2523,-150.68038 C -1559.2523,-150.68038 -1559.2523,327.65041 -1559.2523,327.65041 C -1702.1265,328.55086 -1904.6525,220.48075 -1904.6525,88.454235 C -1904.6525,-43.572302 -1745.2157,-150.68036 -1559.2523,-150.68038 z "
           style="opacity:0.40206185;color:black;fill:url(#radialGradient6719);fill-opacity:1;fill-rule:nonzero;stroke:none;stroke-width:1;stroke-linecap:round;stroke-linejoin:miter;marker:none;marker-start:none;marker-mid:none;marker-end:none;stroke-miterlimit:4;stroke-dasharray:none;stroke-dashoffset:0;stroke-opacity:1;visibility:visible;display:inline;overflow:visible" />
      </g>
      <rect
         ry="2.3944440"
         rx="2.4241352"
         y="15.275433"
         x="7.4623847"
         height="23.112879"
         width="31.978371"
         id="rect3115"
         style="opacity:1.0000000;color:#000000;fill:url(#linearGradient2288);fill-opacity:1.0000000;fill-rule:nonzero;stroke:#a0670c;stroke-width:1.0000007;stroke-linecap:butt;stroke-linejoin:miter;marker:none;marker-start:none;marker-mid:none;marker-end:none;stroke-miterlimit:4.0000000;stroke-dasharray:none;stroke-dashoffset:0.0000000;stroke-opacity:1.0000000;visibility:visible;display:block;overflow:visible" />
      <rect
         style="opacity:0.48101267;color:#000000;fill:none;fill-opacity:1.0000000;fill-rule:nonzero;stroke:url(#linearGradient2285);stroke-width:1.0000011;stroke-linecap:butt;stroke-linejoin:miter;marker:none;marker-start:none;marker-mid:none;marker-end:none;stroke-miterlimit:4.0000000;stroke-dasharray:none;stroke-dashoffset:0.0000000;stroke-opacity:1.0000000;visibility:visible;display:block;overflow:visible"
         id="rect4220"
         width="29.804138"
         height="21.075352"
         x="8.4989996"
         y="16.243698"
         rx="1.2846882"
         ry="1.2846882" />
      <g
         id="g8440">
        <path
           style="fill:url(#linearGradient2280);fill-opacity:1.0000000;fill-rule:evenodd;stroke:url(#linearGradient2282);stroke-width:1.0000008;stroke-linecap:butt;stroke-linejoin:miter;stroke-miterlimit:4.0000000;stroke-dasharray:none;stroke-opacity:1.0000000"
           d="M 8.7697819,16.547178 L 13.819731,9.7363408 L 32.615291,9.6353255 L 37.835264,16.408941 L 8.7697819,16.547178 z "
           id="path4162"
           sodipodi:nodetypes="ccccc" />
        <path
           style="opacity:1.0000000;color:#000000;fill:url(#linearGradient2277);fill-opacity:1.0000000;fill-rule:nonzero;stroke:#a0670c;stroke-width:1.0000005;stroke-linecap:round;stroke-linejoin:round;marker:none;marker-start:none;marker-mid:none;marker-end:none;stroke-miterlimit:4.0000000;stroke-dasharray:none;stroke-dashoffset:0.0000000;stroke-opacity:1.0000000;visibility:visible;display:block;overflow:visible"
           d="M 38.276321,16.325703 L 43.469269,23.520364 L 3.9609455,23.520364 L 8.6250143,16.320763 L 38.276321,16.325703 z "
           id="path4164"
           sodipodi:nodetypes="ccccc" />
        <path
           style="opacity:1.0000000;color:#000000;fill:url(#linearGradient2274);fill-opacity:1.0000000;fill-rule:nonzero;stroke:#a0670c;stroke-width:1.0000005;stroke-linecap:round;stroke-linejoin:round;marker:none;marker-start:none;marker-mid:none;marker-end:none;stroke-miterlimit:4.0000000;stroke-dasharray:none;stroke-dashoffset:0.0000000;stroke-opacity:1.0000000;visibility:visible;display:block;overflow:visible"
           d="M 32.849333,9.6141009 L 37.532219,16.536370 L 46.565835,20.921197 L 38.451329,12.008545 L 32.849333,9.6141009 z "
           id="path4178"
           sodipodi:nodetypes="ccccc" />
        <path
           id="path4180"
           d="M 13.617702,9.7151161 L 9.6419233,16.435355 L 0.50729183,20.820182 L 8.6217973,11.907530 L 13.617702,9.7151161 z "
           style="opacity:1.0000000;color:#000000;fill:#f8e8cf;fill-opacity:1.0000000;fill-rule:nonzero;stroke:#a0670c;stroke-width:1.0000000;stroke-linecap:round;stroke-linejoin:round;marker:none;marker-start:none;marker-mid:none;marker-end:none;stroke-miterlimit:4.0000000;stroke-dasharray:none;stroke-dashoffset:0.0000000;stroke-opacity:1.0000000;visibility:visible;display:block;overflow:visible"
           sodipodi:nodetypes="ccccc" />
        <path
           sodipodi:nodetypes="ccccc"
           id="path4954"
           d="M 37.024959,16.436050 L 41.478871,22.493011 L 5.6482792,22.493011 L 9.7892982,16.312694 L 37.024959,16.436050 z "
           style="opacity:1.0000000;color:#000000;fill:none;fill-opacity:1.0000000;fill-rule:nonzero;stroke:#f4e3ca;stroke-width:1.0000000;stroke-linecap:butt;stroke-linejoin:miter;marker:none;marker-start:none;marker-mid:none;marker-end:none;stroke-miterlimit:4.0000000;stroke-dasharray:none;stroke-dashoffset:0.0000000;stroke-opacity:1.0000000;visibility:visible;display:block;overflow:visible" />
        <path
           sodipodi:nodetypes="ccccc"
           id="path4966"
           d="M 9.6523127,16.371803 L 13.036643,10.593020 L 33.514841,10.517799 L 37.356782,16.369880 L 9.6523127,16.371803 z "
           style="opacity:0.87974685;fill:none;fill-opacity:1.0000000;fill-rule:evenodd;stroke:url(#linearGradient2269);stroke-width:1.0000000;stroke-linecap:round;stroke-linejoin:round;stroke-miterlimit:4.0000000;stroke-dasharray:none;stroke-opacity:1.0000000" />
      </g>
    </g>
    <g
       style="font-style:normal;font-weight:normal;line-height:0%;font-family:'Bitstream Vera Sans';fill:#eeeeec;fill-opacity:1;stroke:#d3d7cf;stroke-width:1px;stroke-linecap:butt;stroke-linejoin:miter;stroke-opacity:1"
       id="text8436"
       aria-label="BZ2">
      <path
         id="path1892"
         style="font-weight:bold;font-size:12px;line-height:1.25;fill:#eeeeec;stroke:#d3d7cf;stroke-linejoin:miter;stroke-opacity:1"
         d="m 15.019962,29.297916 q 0.533203,0 0.808594,-0.234375 0.275391,-0.234375 0.275391,-0.691406 0,-0.451172 -0.275391,-0.685547 -0.275391,-0.240234 -0.808594,-0.240234 h -1.248047 v 1.851562 z m 0.07617,3.826172 q 0.679688,0 1.019531,-0.287109 0.345704,-0.287109 0.345704,-0.867188 0,-0.568359 -0.339844,-0.849609 -0.339844,-0.287109 -1.025391,-0.287109 h -1.324219 v 2.291015 z m 2.097656,-3.146484 q 0.726563,0.210937 1.125,0.779297 0.398438,0.568359 0.398438,1.394531 0,1.265625 -0.855469,1.886719 -0.855469,0.621094 -2.601562,0.621094 h -3.744141 v -8.748047 h 3.386719 q 1.822265,0 2.636719,0.550781 0.820312,0.550781 0.820312,1.763672 0,0.638672 -0.298828,1.089844 -0.298828,0.445312 -0.867188,0.662109 z" />
      <path
         id="path1894"
         style="font-weight:bold;font-size:12px;line-height:1.25;fill:#eeeeec;stroke:#d3d7cf;stroke-linejoin:miter;stroke-opacity:1"
         d="m 20.228947,25.911198 h 7.353515 v 1.365234 l -4.693359,5.677734 h 4.828125 v 1.705079 H 20.094181 V 33.29401 l 4.693359,-5.677734 h -4.558593 z" />
      <path
         id="path1896"
         style="font-weight:bold;font-size:12px;line-height:1.25;fill:#eeeeec;stroke:#d3d7cf;stroke-linejoin:miter;stroke-opacity:1"
         d="m 31.707462,33.001041 h 3.84961 v 1.658204 H 29.19965 v -1.658204 l 3.193359,-2.818359 q 0.427735,-0.386719 0.632813,-0.755859 0.205078,-0.369141 0.205078,-0.767578 0,-0.615235 -0.416016,-0.990235 -0.410156,-0.375 -1.095703,-0.375 -0.527344,0 -1.154297,0.228516 -0.626953,0.222656 -1.341797,0.667969 V 26.26862 q 0.761719,-0.251954 1.50586,-0.38086 0.74414,-0.134765 1.458984,-0.134765 1.570313,0 2.4375,0.691406 0.873047,0.691406 0.873047,1.927734 0,0.714844 -0.369141,1.335938 -0.36914,0.615234 -1.552734,1.652343 z" />
    </g>
  </g>
</svg>
